X: 36726
T: Sheep In The Boat, The
R: jig
M: 6/8
K: Adorian
|:EAB cBA|~B3 gab|age dBd|edB ABG|
EAB cBA|~B3 gab|age dBd|edB A3:|
|:eab c'ba|~b3 gab|age dBd|edB ABG|
[1 eab c'ba|~b3 gab|age dBd|edB A3:|
[2 EAB cBA|~B3 gab|age dBd|edB A3||

